X: 55
M: 4/4
L: 1/8
K: G
((3DEF) |\
afdf afdf | "b."bfdf bfdf | afdf afdf | agfe d2"c."d2 |
ed^cd egfe | dcBc d2ef | gafe "d."dcBA | "e."G2G2 G2 |]
P: Var:
"a."cd || "b."bfff bfff || "c."dd || "d."dBBA || "e."G2GG G2 |] y8 y8 y8 y8


